svgs/thin/circle-book-open.svg

<svg xmlns="http://www.w3.org/2000/svg" viewBox="0 0 512 512"><!--! Font Awesome Pro 6.0.0-alpha3 by @fontawesome - https://fontawesome.com License - https://fontawesome.com/license (Commercial License) --><path d="M387.1 156.8c-5.762-2.125-35.04-13.07-65.8-12.83C286.6 144.6 262.9 156.2 256 160C249.1 156.2 225.4 144.6 190.7 144c-29.83-.4766-60.25 10.78-65.8 12.83C117.2 159.7 112 167.2 112 175.6v163.1c0 10.45 10.1 18.44 20.62 15.22c16.43-5.09 31.84-7.037 45.81-7.037c44.95 0 74.9 20.15 75.29 20.41c1.418 .959 3.172 .9375 4.547 0c.3926-.2676 30.34-20.41 75.29-20.41c13.97 0 29.38 1.947 45.81 7.037C389.1 357.2 400 349.1 400 338.7V175.6C400 167.2 394.8 159.7 387.1 156.8zM248 346.2c-14.43-6.754-38.46-15.33-69.56-15.33c-16.94 0-33.95 2.609-50.44 7.818V175.6c0-1.688 1.006-3.236 2.461-3.771C151.5 164.1 172 160 190.5 160C221.2 160.5 242.1 170.6 248 173.9V346.2zM384 338.7c-16.49-5.209-33.49-7.818-50.44-7.818c-31.11 0-55.14 8.576-69.56 15.33V173.9C269.9 170.6 290.8 160.5 321.5 160c18.44 0 39.02 4.094 60.01 11.84C382.1 172.4 384 173.9 384 175.6V338.7zM256 0C114.6 0 0 114.6 0 256c0 141.4 114.6 256 256 256s256-114.6 256-256C512 114.6 397.4 0 256 0zM256 496c-132.3 0-240-107.7-240-240S123.7 16 256 16s240 107.7 240 240S388.3 496 256 496z"/></svg>

<svg xmlns="http://www.w3.org/2000/svg" viewBox="0 0 512 512"><!-- Font Awesome Pro 6.0.0-alpha2 by @fontawesome - https://fontawesome.com License - https://fontawesome.com/license (Commercial License) --><path d="M256 16C123.451 16 16 123.451 16 256S123.451 496 256 496S496 388.549 496 256S388.549 16 256 16ZM256 480C132.486 480 32 379.514 32 256S132.486 32 256 32S480 132.486 480 256S379.514 480 256 480ZM387.078 156.83C381.316 154.705 352.039 143.762 321.273 144.002C286.602 144.557 262.854 156.221 256 160.016C249.146 156.221 225.398 144.557 190.727 144.002C160.9 143.525 130.477 154.781 124.922 156.83C117.195 159.674 112 167.223 112 175.613V338.693C112 349.141 122.096 357.135 132.625 353.912C149.051 348.822 164.469 346.875 178.436 346.875C223.385 346.875 253.334 367.021 253.727 367.289C255.145 368.248 256.898 368.227 258.273 367.289C258.666 367.021 288.615 346.875 333.564 346.875C347.531 346.875 362.949 348.822 379.375 353.912C389.992 357.16 400 349.053 400 338.693V175.613C400 167.223 394.805 159.674 387.078 156.83ZM248 346.205C233.572 339.451 209.541 330.875 178.436 330.875C161.494 330.875 144.488 333.484 128 338.693V175.613C128 173.926 129.006 172.377 130.461 171.842C151.455 164.094 172.035 160 190.471 160C221.221 160.492 242.07 170.635 248 173.893V346.205ZM384 338.693C367.512 333.484 350.506 330.875 333.564 330.875C302.459 330.875 278.428 339.451 264 346.205V173.893C269.93 170.635 290.779 160.492 321.529 160C339.965 160 360.545 164.094 381.539 171.842C382.994 172.377 384 173.926 384 175.613V338.693Z"/></svg>
